X:1
T:Title
%%score { ( 1 3 5 ) | ( 2 4 6 ) }
L:1/8
M:4/4
K:Eb
V:1 treble nm="Grand Piano"
V:3 treble 
V:5 treble 
V:2 bass 
V:4 bass 
V:6 bass 
V:1
 z4 z2[Q:1/4=100] [B,EG]>[B,FA] | [EGB]2 [DAB]2 [EGB]2 [EAc]>[Ad] | [Ge]2 [Ac]2 [GB]2 [FA]>[EG] | %3
 [DF]2 [Ad]2 [Ad]2 [CAc]>[DAB] | [EGc]2 [EGB]2 [B,EG]2 [B,EG]>[B,FA] | %5
 [EGB]2 [DAB]2 [EB]2 [EAc]>[EAd] | [EBe]2 [EBd]2 [EAc]2 [=EBc]>[EBc] | %7
 [F=Ac]2 [FAc]2 A-[Ae][FAd][EAc] | [DFB]2 .[CF=A]2 [B,DB]4 | [EGB]2 [DFB]>[DAB] [EGB]3 [B,EG] | %10
 z4 z E3 | z .B3 z .e3 | [DF]6 z2 | [EGB]2 [DFB]>[DAB] [EGB]3 [DAB] | z4 z [Ge]3 | z .B3 z .A3 | %16
 E6 z2 |] %17
V:2
 z4 z2 E,>E, | E,2 F,2 G,2 A,>[F,B,] | [E,B,]2 [E,E]2 [E,E]2 [E,B,]>[E,B,] | %3
 [B,,B,]2 [B,,B,]2 [B,,B,]2 B,,>B,, | E,2 E,2 E,2 E,>E, | E,2 F,2 G,2 A,>A, | G,2 G,2 A,2 G,>G, | %7
 F,2 F,2 z CF,F, | F,2 z E B,,4 | E,2 B,,>B,, E,3 E, | z A[B,,B,][B,,B,] [E,A,D][E,G,]E,E, | %11
 .E2[K:treble] z G .A2[K:bass] z E | B,2 B,>B, B,A,G,F, | E,2 B,,>B,, E,3 B,, | %14
 B,,2 [B,,B,][B,,B,] [B,,B,][E,B,]E,E, | z .G3 z .D3 | [E,G,B,][E,G,] [E,A,]2 [E,G,]2 z2 |] %17
V:3
 x8 | x8 | x8 | x8 | x8 | x8 | x8 | z4 .[Ec]2 z2 | x8 | x8 | .[B,DB]2 [DG][DF] .F2 G,G, | %11
 .G2 z B .c2 z G | x8 | x8 | [DAB]2 [Ac][Ad] .[Af]2 B,B, | .[Ge]2 z G .[DB]2 z F | %16
 z B, C2 B,2 z2 |] %17
V:4
 x8 | x8 | x8 | x8 | x8 | x8 | x8 | z4 F,2 z2 | z2 F,2 z4 | x8 | B,,2 z2 z4 | %11
 z[K:treble] .G3 [A,E]2[K:bass] A,2 | x8 | x8 | x8 | z2 z E z2 z D | x8 |] %17
V:5
 x8 | x8 | x8 | x8 | x8 | x8 | x8 | x8 | x8 | x8 | x8 | z2 E2 z2 C2 | x8 | x8 | x8 | %15
 z2 B,2 z2 B,2 | x8 |] %17
V:6
 x8 | x8 | x8 | x8 | x8 | x8 | x8 | x8 | x8 | x8 | x8 | [E,B,]2[K:treble] E,2 z .A3[K:bass] | x8 | %13
 x8 | x8 | [E,B,]2 E,2 [B,,B,]2 B,,2 | x8 |] %17

